X: 1
T: Lord Dreghorn's Quickstep
C: Robert Mackintosh
O: Skye Collection
R: jig
Z: John Chambers <jc:trillian.mit.edu>
M: 6/8
L: 1/8
K: D
A \
| "D"d3 "A7"ABc | "D"dAG FED | "D"d3 "Bm"Bcd | "Em"efd "A7"cBA \
| "D"d3 "A7"Adc | "G"BAG "D"FED | "Em"GFG "A7"EAG | "D"FDD D2 :|
A \
| "D"F>ED AFD | "G"GBd dBG | "D"F>ED AGF | "A7"E3 A,2G \
| "D"F>ED AFD | "G"GBd dBG | "A7"Ace gfe | "D"fdd d2 ||
A \
| "D"F>ED AFD | "G"GBd dBG | "D"F>ED AGF | "A7"E3 A,2G \
| "D"FED "Em"GFE | "D"AGF "G"BAG | "A7"Aag fge | "D"fdd d2 |]
